!!!OTL: Yuguzu renmin xiyangyang
!!!ARE: Asia, China,ˇGansu Sunan
!! I, 106, 2)
!!!SCT: C2016
!!!YEM: Copyright 1995, estate of Helmut Schaffrath.
**kern
*ICvox
*Ivox
*M3/4
*k[f#]
*G:
{4dd
2ee
=1
2.dd}
=2
{12e
12g
12e
4g
8.b
16a
=3
12g
12a
12g
4b
4dd}
=4
{12e
12g
12e
4g
8.b
16a
=5
8g
8g
2a}
=6
{12e
12g
12e
4g
8.b
16a
=7
12g
12a
12g
4b
4dd}
=8
{12e
12g
12e
4g
8.b
16a
=9
8g
8g
2a}
==
!!!AGN: Shange
!! YÅgu
!!!ONB: ESAC (Essen Associative Code) Database: SENGANSU
!!!AMT: simple triple
!!!AIN: vox
!!!EED: Helmut Schaffrath
!!!EEV: 1.0
*-
